Surfn-Breeze-Dark/scalable/mimetypes/text-x-chdr.svg

<?xml version="1.0" encoding="UTF-8" standalone="no"?>
<svg
   xmlns:dc="http://purl.org/dc/elements/1.1/"
   xmlns:cc="http://creativecommons.org/ns#"
   xmlns:rdf="http://www.w3.org/1999/02/22-rdf-syntax-ns#"
   xmlns:svg="http://www.w3.org/2000/svg"
   xmlns="http://www.w3.org/2000/svg"
   xmlns:xlink="http://www.w3.org/1999/xlink"
   xmlns:sodipodi="http://sodipodi.sourceforge.net/DTD/sodipodi-0.dtd"
   xmlns:inkscape="http://www.inkscape.org/namespaces/inkscape"
   version="1.1"
   id="svg2"
   height="64"
   viewBox="0 0 64 64"
   width="64"
   inkscape:version="0.91 r13725"
   sodipodi:docname="text-x-chdr.svg">
  <sodipodi:namedview
     pagecolor="#ffffff"
     bordercolor="#666666"
     borderopacity="1"
     objecttolerance="10"
     gridtolerance="10"
     guidetolerance="10"
     inkscape:pageopacity="0"
     inkscape:pageshadow="2"
     inkscape:window-width="2560"
     inkscape:window-height="1377"
     id="namedview19"
     showgrid="false"
     inkscape:zoom="3.6875"
     inkscape:cx="-7.3220339"
     inkscape:cy="32"
     inkscape:window-x="0"
     inkscape:window-y="34"
     inkscape:window-maximized="1"
     inkscape:current-layer="svg2" />
  <metadata
     id="metadata39">
    <rdf:RDF>
      <cc:Work
         rdf:about="">
        <dc:format>image/svg+xml</dc:format>
        <dc:type
           rdf:resource="http://purl.org/dc/dcmitype/StillImage" />
        <dc:title />
      </cc:Work>
    </rdf:RDF>
  </metadata>
  <defs
     id="defs4">
    <linearGradient
       x2="54"
       gradientUnits="userSpaceOnUse"
       y2="31"
       x1="40"
       y1="17"
       id="a">
      <stop
         id="stop7"
         stop-color="#060606" />
      <stop
         id="stop9"
         stop-opacity="0"
         offset="1" />
    </linearGradient>
    <linearGradient
       gradientTransform="translate(264,1062)"
       x2="0"
       gradientUnits="userSpaceOnUse"
       y2="336.36"
       y1="392.36"
       id="b">
      <stop
         id="stop12"
         stop-opacity="0"
         stop-color="#ffffff" />
      <stop
         id="stop14"
         stop-opacity=".1"
         stop-color="#ffffff"
         offset="1" />
    </linearGradient>
    <path
       d="m322 1455.36v-58h30l14 14v44h-14z"
       id="c" />
  </defs>
  <use
     transform="translate(-312,-1394.36)"
     height="100%"
     width="100%"
     y="0"
     x="0"
     style="color:#000000;color-interpolation:sRGB;color-interpolation-filters:linearRGB;fill:#cf74e0;color-rendering:auto;image-rendering:auto;shape-rendering:auto;text-rendering:auto;fill-opacity:1"
     id="use21"
     xlink:href="#c" />
  <rect
     transform="scale(1,-1)"
     x="10"
     y="-3.9999855"
     width="30"
     height="1"
     id="rect25"
     style="color:#000000;opacity:0.5;color-interpolation:sRGB;color-interpolation-filters:linearRGB;fill:#ffffff;color-rendering:auto;image-rendering:auto;shape-rendering:auto;text-rendering:auto" />
  <rect
     transform="scale(1,-1)"
     x="10"
     y="-60.999985"
     width="44"
     height="1"
     id="rect27"
     style="color:#000000;opacity:0.25;color-interpolation:sRGB;color-interpolation-filters:linearRGB;color-rendering:auto;image-rendering:auto;shape-rendering:auto;text-rendering:auto" />
  <path
     style="color:#000000;color-interpolation:sRGB;color-interpolation-filters:linearRGB;fill:#ffffff;color-rendering:auto;image-rendering:auto;shape-rendering:auto;text-rendering:auto;fill-opacity:1;opacity:0.5"
     id="path29"
     d="M 54,17 40,3 40,17 Z" />
  <path
     d="M 40,17 54,31 54,17 Z"
     id="path31"
     style="opacity:0.2;fill:url(#a);fill-rule:evenodd" />
  <path
     d="m 25,21 0,10 0,2 0,10 2,0 0,-10 8,0 0,-2 -8,0 0,-10 -2,0 z m 10,12 0,2 2,0 0,-2 -2,0 z m 2,2 0,8 2,0 0,-8 -2,0 z"
     id="rect4167"
     style="fill:#ffffff;fill-opacity:1" />
  <use
     transform="translate(-312,-1394.36)"
     xlink:href="#c"
     id="use35"
     style="fill:url(#b)"
     x="0"
     y="0"
     width="100%"
     height="100%" />
</svg>

<?xml version="1.0" encoding="UTF-8" standalone="no"?>
<svg xmlns="http://www.w3.org/2000/svg" xmlns:xlink="http://www.w3.org/1999/xlink" viewBox="0 0 64 64" version="1.1" width="64" height="64">
 <defs>
  <linearGradient xlink:href="#linearGradient4300" id="linearGradient4306" x1="32" y1="61" x2="32" y2="3" gradientUnits="userSpaceOnUse"/>
  <linearGradient gradientTransform="matrix(1,0,0,-1,-14,78)" xlink:href="#linearGradient4410" id="linearGradient4427" x1="54" y1="31" x2="40" y2="17" gradientUnits="userSpaceOnUse"/>
  <linearGradient id="linearGradient4410">
   <stop style="stop-color:#383e51;stop-opacity:1" offset="0"/>
   <stop style="stop-color:#655c6f;stop-opacity:0" offset="1"/>
  </linearGradient>
  <linearGradient xlink:href="#linearGradient4351-8" id="linearGradient4357" x1="47" y1="61" x2="47" y2="47" gradientUnits="userSpaceOnUse"/>
  <linearGradient id="linearGradient4351-8">
   <stop offset="0" style="stop-color:#f78fb9;stop-opacity:1"/>
   <stop offset="1" style="stop-color:#f9c1d6;stop-opacity:1"/>
  </linearGradient>
  <linearGradient id="linearGradient4300">
   <stop offset="0" style="stop-color:#e00a5e;stop-opacity:1"/>
   <stop offset="1" style="stop-color:#f62870;stop-opacity:1"/>
  </linearGradient>
 </defs>
 <path style="fill:url(#linearGradient4306);fill-opacity:1.0;" d="M 10 3 L 10 61 L 40 61 L 54 47 L 54 17 L 54 3 L 40 3 L 10 3 z"/>
 <rect style="opacity:1;fill:#2e3132;fill-opacity:0.29411765;" width="30" height="1" x="10" y="60"/>
 <rect style="opacity:1;fill:#ffffff;fill-opacity:0.40983605;" width="44" height="1" x="10" y="3"/>
 <path style="fill:url(#linearGradient4357);fill-opacity:1.0;fill-rule:evenodd;" d="M 54,47 40,61 40,47 Z"/>
 <path d="M 26,61 40,47 40,61 Z" style="opacity:0.2;fill:url(#linearGradient4427);fill-opacity:1;fill-rule:evenodd;"/>
 <path style="opacity:1;fill:#f9c1d6;fill-opacity:1;" d="M 25 21 L 25 31 L 25 33 L 25 43 L 27 43 L 27 33 L 35 33 L 35 31 L 27 31 L 27 21 L 25 21 z M 35 33 L 35 35 L 37 35 L 37 33 L 35 33 z M 37 35 L 37 43 L 39 43 L 39 35 L 37 35 z"/>
</svg>
